!!!!SEGMENT: pl-wtm--r-2287_troschel-wilhelm--wiara.krn
!!!cenid: 18xx:2250
!!!COM: Troschel, Wilhelm
!!!COM-rismid: pe30024099
!!!CDT: 1823/08/23-1887/03/02
!!!CNT: Polish
!!!OTL: Wiara
!!!PDT:
!!!AGN:
!!!SMS-siglum: PL-Wtm
!!!SMS-shelfmark: R 2287
!!!SMS-shelfwork: W
!!!SMS-variant:
!!!SMS-altvar:
!!!NIFC-rismid: 1001113742
!!!OMD: Andante maestoso.
!!!system-decoration: s1{(s2,s3)}{(s4,s5)}
!!!AIN: 3 empty
!!!key:
**kern	**kern	**dynam	**kern	**fing	**kern	**fing	**dynam	**kern	**text	**dynam
*part3	*part3	*part3	*part2	*part2	*part2	*part2	*part2	*part1	*part1	*part1
*staff5	*staff4	*	*staff3	*staff3	*staff2	*staff2	*	*staff1	*staff1	*
*Iempty	*Iorgan	*	*Iempty	*	*Iforte	*	*	*Iempty	*	*
*	*I"Organ	*	*	*	*I"Fortepian	*	*	*I"Śpiew	*	*
*	*I'Org.	*	*	*	*I'Pf.	*	*	*I'Ś.	*	*
*clefF4	*clefG2	*	*clefF4	*	*clefG2	*	*	*clefG2	*	*
*ITrd1c1	*ITrd1c1	*	*	*	*	*	*	*	*	*
*k[f#c#]	*k[f#c#]	*	*k[f#c#]	*	*k[f#c#]	*	*	*k[f#c#]	*	*
*B:	*B:	*	*B:	*	*B:	*	*	*B:	*	*
*M4/4	*M4/4	*	*M4/4	*	*M4/4	*	*	*M4/4	*	*
*met(c)	*met(c)	*	*met(c)	*	*met(c)	*	*	*met(c)	*	*
=1	=1	=1	=1	=1	=1	=1	=1	=1	=1	=1
*	*	*	*	*	*^	*	*	*	*	*
*	*	*	*2\right	*	*2\right	*2\right	*	*	*	*	*
!!LO:TX:a:t=P:problem:all\right:global
!LO:TX:a:Bi:t=17:problem=zapisane jako jedna gruba pozioma kreska	!LO:TX:a:Bi:t=17:problem=zapisane jako jedna gruba pozioma kreska	!	!	!	!	!	!	!	!	!	!
!	!LO:TX:t=P:problem=w źródle partia organo na innej stronie [tam też zdublowany zapis głosu, nieuwzględniony w kodzie]	!	!	!	!	!	!	!	!	!	!
!	!	!	!	!	!	!	!	!LO:DY:b:rj	!	!	!
1ryy	1ryy	.	2rGG	.	8.AA#X</L	2rcyy	.	p	1r	.	.
.	.	.	.	.	16C#</K	.	.	.	.	.	.
!	!	!	!	!	!	!	!	!LO:HP:b=2	!	!	!
.	.	.	.	.	8.E</	.	.	<	.	.	.
.	.	.	.	.	16G</Jk	.	.	.	.	.	.
.	.	.	8.GG\L	.	(>8.B</L	4E< 4C#</	.	.	.	.	.
.	.	.	16FF#\Jk	.	16A#X</Jk	.	.	[	.	.	.
.	.	.	8.BB\L	.	8.d</L	4G< 4E</	.	.	.	.	.
.	.	.	16AA#X\Jk	.	16c#</Jk)	.	.	.	.	.	.
=2	=2	=2	=2	=2	=2	=2	=2	=2	=2	=2	=2
!	!	!	!	!	!	!	!	!LO:DY:b:rj	!	!	!
1ryy	1ryy	.	2rGG	.	8.C#</L	2rcyy	.	p	1r	.	.
.	.	.	.	.	16E</K	.	.	.	.	.	.
!	!	!	!	!	!	!	!	!LO:HP:b=2	!	!	!
.	.	.	.	.	8.G</	.	.	<	.	.	.
.	.	.	.	.	16A#X</Jk	.	.	.	.	.	.
.	.	.	8.BB\L	.	(>8.d/L	4G< 4E</	.	.	.	.	.
.	.	.	16AA#X\Jk	.	16c#/Jk	.	.	[	.	.	.
.	.	.	8.D\L	.	8.f#/L	4B< 4G</	.	.	.	.	.
.	.	.	16C#\Jk	.	16e/Jk)	.	.	.	.	.	.
!	!	!	!LO:LB:g=original	!	!LO:LB:g=original	!	!	!	!LO:LB:g=original	!	!
=3	=3	=3	=3	=3	=3	=3	=3	=3	=3	=3	=3
*	*	*	*	*	*	*	*^	*	*	*	*
!	!	!	!	!	!	!	!	!	!LO:DY:b:rj	!	!	!
1ryy	1ryy	.	8.r	.	[>4g/	8.r	.	.	f	1r	.	.
.	.	.	32ELLL 32AA#X\	.	.	32c#LLL 32G\	.	.	.	.	.	.
.	.	.	32EJJJ 32AA#\	.	.	32c#JJJ 32G\	.	.	.	.	.	.
.	.	.	8E 8AA#\	.	8g/L_>	8c# 8G\	.	.	.	.	.	.
.	.	.	8r	.	32g/LL]	8rc	.	.	.	.	.	.
.	.	.	.	.	32c#/	.	.	.	.	.	.	.
.	.	.	.	.	32d/	.	.	.	.	.	.	.
.	.	.	.	.	32e/JJJ	.	.	.	.	.	.	.
.	.	.	8.r	.	[>4e/	8.r<	.	5	.	.	.	.
.	.	.	32C#LLL 32GG\	.	.	32A#X<LLL 32E</	.	.	.	.	.	.
.	.	.	32C#JJJ 32GG\	.	.	32A#<JJJ 32E</	.	.	.	.	.	.
.	.	.	8C# 8GG\	.	8e/L_<	8A#< 8E</	.	.	.	.	.	.
.	.	.	8r	.	32e/LL]	8r<	.	.	.	.	.	.
.	.	.	.	.	32A#X/	.	.	.	.	.	.	.
.	.	.	.	.	32B/	.	.	.	.	.	.	.
.	.	.	.	.	32c#/JJJ	.	.	.	.	.	.	.
*	*	*	*	*	*	*	*v	*v	*	*	*	*
=4	=4	=4	=4	=4	=4	=4	=4	=4	=4	=4	=4
*	*	*	*	*	*	*	*	*^	*	*	*
1ryy	1ryy	.	4r	.	8.c#/L	2.rcyy	.	.	.	1r	.	.
.	.	.	.	.	16E</K	.	.	.	.	.	.	.
.	.	.	(<4C# 4AA#X 4EE\	.	8.G</	.	.	>	.	.	.	.
!	!	!	!	!	!	!	!	!	!LO:HP:a	!	!	!
.	.	.	.	.	16F#</Jk	.	.	.	>	.	.	.
.	.	.	4BB 4DD\	.	8.E#X</L	.	.	.	.	.	.	.
.	.	.	.	.	16F#</K	.	.	]	.	.	.	.
.	.	.	.	.	8qA</	.	.	.	.	.	.	.
.	.	.	4AA# 4CC#\)	.	8.G</	4E<#/	.	.	.	.	.	.
.	.	.	.	.	16F#</Jk	.	.	.	.	.	.	.
!	!	!	!LO:LB:g=original	!	!LO:LB:g=original	!	!	!	!	!LO:LB:g=original	!	!
*	*	*	*	*	*	*	*	*v	*v	*	*	*
=5	=5	=5	=5	=5	=5	=5	=5	=5	=5	=5	=5
*	*	*	*	*	*	*	*	*	*2\right	*	*
!	!	!	!	!	!	!	!	!LO:DY:b:rj	!	!	!LO:DY:b:rj
1ryy	1ryy	.	2BB 2BBB\	.	8.BL 8.D</	2ryy	.	p	8.r	.	p
.	.	.	.	.	16dK 16B/	.	.	<	16d/	Gdy	<
.	.	.	.	.	8.e 8.c#/	.	.	.	8.e/	bu-	.
.	.	.	.	.	16f#Jk 16d/	.	.	[	16f#/	-rze	[
.	.	.	(<4.EE 4.EEE/	.	(>4.g/	8.e\L	.	>	4.g/	lo-	>
.	.	.	.	.	.	16B\Jk	.	.	.	.	.
.	.	.	.	.	.	8e\L	.	.	.	.	.
.	.	.	8GG 8GGG/)	.	8f#/)	8d\J	.	]	8f#/	-su	]
=6	=6	=6	=6	=6	=6	=6	=6	=6	=6	=6	=6
1ryy	1ryy	.	2AA 2AAA/	.	8.eL 8.c#/	2ryy	.	.	8.e/	zła-	<
.	.	.	.	.	16c#K 16A/	.	.	<	16c#/	-mią	.
.	.	.	.	.	8.d 8.B/	.	.	.	8.d/	ster	[
.	.	.	.	.	16eJk 16c#/	.	.	[	16e/	twej	.
.	.	.	(<4.DD 4.DDD/	.	(>4.f#/	8.d\L	.	>	4.f#/	ło-	>
.	.	.	.	.	.	16A\Jk	.	.	.	.	.
.	.	.	.	.	.	8d\L	.	.	.	.	.
.	.	.	8FF# 8FFF#/)	.	8e/)	8c#\J	.	]	8e/	-dzi	]
!	!	!	!LO:LB:g=original	!	!LO:LB:g=original	!	!	!	!LO:LB:g=original	!	!
=7	=7	=7	=7	=7	=7	=7	=7	=7	=7	=7	=7
1ryy	1ryy	.	8.GGL 8.GGG/	.	4d/	4B\	.	.	4d/	Zga-	.
.	.	.	16FF#K 16FFF#/	.	.	.	.	.	.	.	.
!	!	!	!	!	!	!	!	!	!	!	!LO:HP:b
.	.	.	8.EE 8.EEE/	.	8.eL 8.c#/	4G\	.	<	8.e/	-szą	<
.	.	.	16DDJk 16DDD/	.	16f#Jk 16B/	.	.	.	16f#/	os-	.
.	.	.	8.CC#L 8.CCC#/	.	8.g/L	8.eL 8.B\	.	.	8.g/	-tat-	[[
.	.	.	16EEK 16EEE/	.	32g/LL	16c#Jk 16B\	.	.	32g/LLL	-nią	.
.	.	.	.	.	32a/JJJ	.	.	.	32a/JJJ	.	.
.	.	.	8.GG 8.GGG/	.	8.b/L	8.eL 8.c#\	.	.	8.b/	gwiaz-	.
.	.	.	16CC#Jk 16CCC#/	.	16g/Jk	16eJk 16B\	.	.	16g/	-dę	.
=8	=8	=8	=8	=8	=8	=8	=8	=8	=8	=8	=8
1ryy	1ryy	.	2FF# 2FFF#/	.	8.f#/L	4A#X\	.	.	4f#/	twe-	.
.	.	.	.	.	16c#/Jk	.	.	.	.	.	.
.	.	.	.	.	8.g#XL 8.e#X/	4d 4B^<\	.	.	8.g#X^>/	.	.
.	.	.	.	.	16a#X/Jk	.	.	.	16a#X/	-go	.
.	.	.	8.FF#\L	5	[>4f# [>4c# [<4A#/	2rcyy	.	.	4f#/	ży-	.
.	.	.	32AA#X\LL	.	.	.	.	.	.	.	.
.	.	.	32C#\JJJ	.	.	.	.	.	.	.	.
.	.	.	8F#\	.	8f#] 8c#] 8A#/]	.	.	.	8f#/	-cia,	.
.	.	.	8r	.	32rA	.	.	.	8r	.	.
.	.	.	.	.	32A#/LLL	.	.	<	.	.	.
.	.	.	.	.	32c#/	.	.	.	.	.	.
.	.	.	.	.	32f#/JJJ	.	.	[[	.	.	.
!	!	!	!LO:PB:g=original	!	!LO:PB:g=original	!	!	!	!LO:PB:g=original	!	!
*	*	*	*	*	*v	*v	*	*	*	*	*
=9	=9	=9	=9	=9	=9	=9	=9	=9	=9	=9
*	*	*	*ped	*	*	*	*	*	*	*
!	!	!	!	!	!LO:TX:b:Bi:t=poco animato	!	!	!LO:TX:a:Bi:t=poco animato	!	!
!	!	!	!	!	!	!	!	!LO:DY:b:rj	!	!LO:DY:b:rj
1ryy	1ryy	.	4E 4EE/	.	[>8gL [>8e [<8B/	.	f	[<8g/	I	f
.	.	.	.	.	32g]LL 32e] 32B/]	.	.	32g/]	.	.
.	.	.	.	.	32e/	.	<	32e/LLL	w roz-	.
.	.	.	.	.	32g/	.	.	32g/JJJ	.	.
.	.	.	.	.	32b/JJJ	.	.	32b/	-hu-	.
.	.	.	[>8GL [<8GG\	.	8.eeL 8.b 8.e/	.	.	8.ee^>\	-ka-	.
.	.	.	32G]LL 32GG\]	.	.	.	.	.	.	.
.	.	.	32E 32EE\	.	.	.	.	.	.	.
.	.	.	32G 32GG\	.	16ddJk 16g 16e/	.	[	16dd\	-nej	.
*	*	*	*Xped	*	*	*	*	*	*	*
.	.	.	32BJJJ 32BB\	.	.	.	.	.	.	.
.	.	.	8.eL 8.E\	.	8.cc#L 8.g^</	.	.	8.cc#\	cięż-	.
.	.	.	16dJk 16D\	.	16bJk 16f#/	.	.	16b\	-kich	.
.	.	.	8.c#L 8.C#\	.	8.aL 8.e^</	.	.	(<8.a/	cież-	.
.	.	.	16AJk 16AA\	.	16gJk 16c#/	.	.	16g/)	-kich	.
=10	=10	=10	=10	=10	=10	=10	=10	=10	=10	=10
1ryy	1ryy	.	[>8AL [<8D\	.	[>4f# 4d/	.	.	[<4f#/	klęsk	.
.	.	.	32A]LL 32D\]	.	.	.	.	.	.	.
.	.	.	32D\	.	.	.	.	.	.	.
.	.	.	32F#\	.	.	.	<	.	.	.
.	.	.	32A\JJJ	.	.	.	.	.	.	.
.	.	.	8.dL 8.D\	.	8f#/L_<	.	.	8.f#/]	.	.
.	.	.	.	.	32f#/LL]	.	.	.	.	.
.	.	.	.	.	32d/	.	.	.	.	.
.	.	.	16c#Jk 16C#\	.	32f#/	.	[	16a/	po-	.
.	.	.	.	.	32a/JJJ	.	.	.	.	.
.	.	.	8.BL 8.BB\	.	8.ddL 8.f# 8.d^</	.	.	8.dd^>\L	-wo-	.
.	.	.	16AJk 16AA\	.	16cc#Jk 16f# 16d/	.	.	16cc#\Jk	.	.
.	.	.	8.GL 8.GG\	.	8.bL 8.d^</	.	.	8.b\L	-dzi	.
.	.	.	16F#Jk 16FF#\	.	16aJk 16d/	.	.	16a\Jk	.	.
!	!	!	!LO:LB:g=original	!	!LO:LB:g=original	!	!	!LO:LB:g=original	!	!
=11	=11	=11	=11	=11	=11	=11	=11	=11	=11	=11
*	*	*	*	*	*^	*	*	*	*	*
1ryy	1ryy	.	8.EL 8.EE\	.	8.g/L	4d 4B\	.	.	8.g/L	Nic	.
.	.	.	16DJk 16DD\	.	32a/LL	.	.	.	32a/LL	.	.
.	.	.	.	.	32b/JJJ	.	.	.	32b/JJJ	.	.
.	.	.	8.C#L 8.CC#\	.	8.aL 8.e/	4A\	.	.	8.a/	cię	.
.	.	.	16AAJk 16AAA\	.	16gJk 16c#/	.	.	.	16g/	nie	.
.	.	.	8.DL 8.DD\	.	8.f#/L	4d 4A\	.	.	8.f#/L	zdo-	.
.	.	.	16C#Jk 16CC#\	.	32g/LL	.	.	.	32g/LL	.	.
.	.	.	.	.	32a/JJJ	.	.	.	32a/JJJ	.	.
.	.	.	8.BBL 8.BBB/	.	8.gL 8.d 8.G/	4ryy	.	.	8.g/	.	.
.	.	.	16AAJk 16AAA/	.	16f#Jk 16d 16A/	.	.	.	16f#/	-ła	.
*	*	*	*	*	*v	*v	*	*	*	*	*
=12	=12	=12	=12	=12	=12	=12	=12	=12	=12	=12
1ryy	1ryy	.	8.GGL 8.GGG\	.	8.eL 8.B/	.	<	(>8.e/	zba-	.
!	!	!	!	!	!	!	!	!	!	!LO:HP:b
.	.	.	16GJk 16GG\	.	16bJk 16e 16B/	.	.	16b/)	-wić	<
.	.	.	8.GL 8.GG\	.	8.a#XL 8.e 8.c#/	.	.	8.a#X/	od	.
.	.	.	16GJk 16GG\	.	16bJk 16e 16B/	.	[	16b/	roz-	[
*	*	*	*ped	*	*	*	*	*	*	*
!	!	!	!	!	!	!	!LO:DY:b:rj	!	!	!
.	.	.	8.C#L 8.CC#^</	.	8.cc#L 8.e#X 8.B^</	.	ff	(>2cc#^>\	-bi-	ff
.	.	.	32C#LL 32CC#/	.	32cc#LL 32e# 32B/	.	.	.	.	.
.	.	.	32C#JJJ 32CC#/	.	32cc#JJJ 32e# 32B/	.	.	.	.	.
.	.	.	8.C#L 8.CC#^</	.	8.cc#L 8.e# 8.B^</	.	.	.	.	.
.	.	.	32C#LL 32CC#/	.	32cc#LL 32e# 32B/	.	.	.	.	.
*	*	*	*Xped	*	*	*	*	*	*	*
.	.	.	32C#JJJ 32CC#/	.	32cc#JJJ 32e# 32B/	.	.	.	.	.
!	!	!	!LO:LB:g=original	!	!LO:LB:g=original	!	!	!LO:LB:g=original	!	!
=13	=13	=13	=13	=13	=13	=13	=13	=13	=13	=13
1ryy	1ryy	.	8C# 8FF#/	.	8f# 8A#/	.	.	8f#/)	-cia!	.
.	.	.	32r	.	32r	.	.	8r	.	.
.	.	.	32BBLLL 32FF#\	.	32dLLL 32G#X< 32E#X</	.	.	.	.	.
.	.	.	32BB 32FF#\	.	32d 32G#< 32E#</	.	.	.	.	.
.	.	.	32BBJJJ 32FF#\	.	32dJJJ 32G#< 32E#</	.	.	.	.	.
.	.	.	8AA#X 8FF#'<^^<\	.	8c#< 8F#<'>^^>/	.	.	4r	.	.
.	.	.	32r	.	32r	.	.	.	.	.
*	*	*	*	*	*clefF4	*	*	*	*	*
.	.	.	32BBLLL 32FF#/	.	32E#LLL 32D\	.	.	.	.	.
.	.	.	32BB 32FF#/	.	32E# 32D\	.	.	.	.	.
.	.	.	32BBJJJ 32FF#/	.	32E#JJJ 32D\	.	.	.	.	.
.	.	.	8AA# 8FF#'<^^</	.	8F# 8C#'>^^>\	.	.	2r	.	.
.	.	.	32r	.	32r	.	.	.	.	.
.	.	.	32DDn/LLL	.	32F#LLL 32Cn 32AAn/	.	.	.	.	.
.	.	.	32DD/	.	32F# 32C 32AA/	.	.	.	.	.
.	.	.	32DD/JJJ	.	32F#JJJ 32C 32AA/	.	.	.	.	.
.	.	.	8CC#'<^^</	.	8F# 8C#X 8AA#X'>^^>/	.	.	.	.	.
.	.	.	32r	.	32r	.	.	.	.	.
.	.	.	32EE#XLLL 32EEE#X/	.	32BLLL 32Gn 32D\	.	.	.	.	.
.	.	.	32EE# 32EEE#/	.	32B 32G 32D\	.	.	.	.	.
.	.	.	32EE#JJJ 32EEE#/	.	32BJJJ 32G 32D\	.	.	.	.	.
=14	=14	=14	=14	=14	=14	=14	=14	=14	=14	=14
*	*	*	*	*	*^	*	*	*	*	*
*	*	*	*	*	*	*	*^	*	*	*	*
1ryy	1ryy	.	8FF# 8FFF#'<^^</	.	8A#X 8F#'>^^>/	[<8C#\L	.	.	.	1r;>	.	.
.	.	.	8r	.	8rF	32C#\LL]	.	.	.	.	.	.
.	.	.	.	.	.	32D\	.	4.	.	.	.	.
.	.	.	.	.	.	32C#\	.	.	.	.	.	.
.	.	.	.	.	.	32AA#X\JJJ	.	.	.	.	.	.
!	!	!	!LO:TX:b:Bi:t=con forza	!	!	!	!	!	!	!	!	!
.	.	.	8r	.	4rF	8FF#^^>\	.	.	.	.	.	.
.	.	.	32r	.	.	8rBB	.	.	.	.	.	.
.	.	.	32DD/LLL	.	.	.	.	.	.	.	.	.
.	.	.	32CC#/	.	.	.	.	.	.	.	.	.
.	.	.	32AAA#X/JJJ	.	.	.	.	.	.	.	.	.
.	.	.	4FFF#^^<;>/	.	4r;>	4rEE;yy	.	.	.	.	.	.
.	.	.	4r	.	4r	4rEEyy	.	.	.	.	.	.
*	*	*	*clefG2	*	*clefG2	*	*	*	*	*	*	*
!	!	!	!LO:LB:g=original	!	!LO:LB:g=original	!	!	!	!	!LO:LB:g=original	!	!
*	*	*	*	*	*	*	*v	*v	*	*	*	*
*	*	*	*	*	*v	*v	*	*	*	*	*
=15	=15	=15	=15	=15	=15	=15	=15	=15	=15	=15
*	*	*	*^	*	*	*	*	*	*	*
*	*	*	*ped	*	*	*	*	*	*	*	*
!	!	!	!	!	!	!	!	!	!LO:TX:a:Bi:t=Poco meno	!	!
1ryy	1ryy	.	2.a#X/	2.e\	.	8r	.	pp	1r	.	.
!	!	!	!	!	!	!LO:TX:a:Bi:t=tranquillo	!	!	!	!	!
.	.	.	.	.	.	(>8f#\L	.	.	.	.	.
.	.	.	.	.	.	8ff#\)	.	.	.	.	.
.	.	.	.	.	.	(>8ff#\J	1.	.	.	.	.
.	.	.	.	.	.	2fff#\)	.	.	.	.	.
*	*	*	*Xped	*	*	*	*	*	*	*	*
.	.	.	4a#/	4e\	.	.	.	.	.	.	.
=16	=16	=16	=16	=16	=16	=16	=16	=16	=16	=16	=16
*	*	*	*ped	*	*	*	*	*	*	*	*
1ryy	1ryy	.	2.b/	2.d#X\	.	8r	.	.	1r	.	.
.	.	.	.	.	.	(>8f#\L	.	.	.	.	.
.	.	.	.	.	.	8ff#\)	.	.	.	.	.
.	.	.	.	.	.	(>8ff#\J	1.	.	.	.	.
.	.	.	.	.	.	2fff#\)	.	.	.	.	.
*	*	*	*Xped	*	*	*	*	*	*	*	*
.	.	.	4b/	4d#\	.	.	.	.	.	.	.
=17	=17	=17	=17	=17	=17	=17	=17	=17	=17	=17	=17
*	*	*	*ped	*	*	*	*	*	*	*	*
1ryy	1ryy	.	2.b/	2.e 2.c#\	.	8r	.	.	1r	.	.
!	!	!	!	!	!	!LO:TX:b:Bi:t=poco rit.	!	!	!	!	!
.	.	.	.	.	.	(>8f#\L	.	.	.	.	.
.	.	.	.	.	.	8ff#\)	.	.	.	.	.
.	.	.	.	.	.	(>8ff#\J	1.	.	.	.	.
.	.	.	.	.	.	2fff#\)	.	.	.	.	.
*	*	*	*Xped	*	*	*	*	*	*	*	*
.	.	.	4a#X/	4e 4c#\	.	.	.	.	.	.	.
!	!	!	!LO:PB:g=original	!	!	!LO:PB:g=original	!	!	!LO:PB:g=original	!	!
*	*	*	*v	*v	*	*	*	*	*	*	*
=18||	=18||	=18||	=18||	=18||	=18||	=18||	=18||	=18||	=18||	=18||
*k[f#c#g#d#a#]	*k[f#c#g#d#a#]	*	*k[f#c#g#d#a#]	*	*k[f#c#g#d#a#]	*	*	*k[f#c#g#d#a#]	*	*
*^	*	*	*	*	*	*	*	*	*	*
!	!	!LO:TX:a:Bi:t=dolcisſimo	!	!	!	!LO:TX:b:Bi:t=dolcisſimo	!	!	!	!	!
!	!	!	!	!LO:TX:b:Bi:t=una corda	!	!	!	!	!	!	!
!	!	!	!LO:DY:b:rj	!	!	!	!	!	!	!	!
[<1B	1ryy	[>1dd# 1b 1f#	pp	2b 2f# 2d# 2B/	.	2ddd# 2bb 2ff# 2dd#\	.	.	8r	.	.
!	!	!	!	!	!	!	!	!	!LO:TX:b:Bi:t=dolcisſimo	!	!
!	!	!	!	!	!	!	!	!	!LO:TX:a:Bi:t=z natchnieniem religjinem	!	!
.	.	.	.	.	.	.	.	.	8f#/	Jest	.
.	.	.	.	.	.	.	.	.	8.g#/	jesz-	.
.	.	.	.	.	.	.	.	.	16a#/	-cze	.
.	.	.	.	2b 2f# 2d# 2B/	.	2ddd# 2bb 2ff# 2dd#\	.	.	4b\	je-	.
.	.	.	.	.	.	.	.	.	4b\	-dna	.
=19	=19	=19	=19	=19	=19	=19	=19	=19	=19	=19	=19
*	*	*^	*	*	*	*	*	*	*	*	*
*2\right	*2\right	*2\right	*2\right	*	*	*	*	*	*	*	*	*
2d#/	1B]	2dd#/]	1g#	.	2b 2g# 2d# 2B/	.	2ddd# 2gg# 2dd#\	.	.	(>8b\	do	.
.	.	.	.	.	.	.	.	.	.	8a#\	ra-	.
.	.	.	.	.	.	.	.	.	.	&(<8g#/	-tun-	.
.	.	.	.	.	.	.	.	.	.	8d#/&)	-ku	.
2e/	.	2cc#/	.	.	2b 2g# 2e 2B/	.	2ccc# 2gg# 2ee\	.	.	4f#/	dro-	.
.	.	.	.	.	.	.	.	.	.	4e/)	-ga	.
!!LO:LB:g=original
*v	*v	*	*	*	*	*	*	*	*	*	*	*
=20	=20	=20	=20	=20	=20	=20	=20	=20	=20	=20	=20
!	!	!	!	!	!	!	!	!	!LO:TX:a:Bi:t=una corda	!	!
1e 1B	1cc#	2g#\	.	2g# 2e 2c# 2B/	.	2ccc# 2gg# 2ee 2cc#\	.	<	(>4e/	Dro-	.
!	!	!	!	!	!	!	!	!	!	!	!LO:HP:b
.	.	.	.	.	.	.	.	.	8.f#/	-ga,	<
.	.	.	.	.	.	.	.	.	16g#/	co	.
.	.	2a# 2f#\	.	2a# 2f# 2e 2B/	.	2ccc# 2ff# 2ee 2cc#\	.	[[	4a#/	nie-	[
.	.	.	.	.	.	.	.	.	8a#/	-bo	.
.	.	.	.	.	.	.	.	.	8g#/)	ku	.
=21	=21	=21	=21	=21	=21	=21	=21	=21	=21	=21	=21
*^	*	*	*	*	*	*	*	*	*	*	*
2e/	1B	(>2cc# 2a#/	[<2f#\	.	2cc# 2f# 2B/	.	2eee 2aa# 2ee\	.	>	8f#/L	zie-	.
.	.	.	.	.	.	.	.	.	.	(>8g#/J	.	.
.	.	.	.	.	.	.	.	.	.	8f#/	-mi	.
.	.	.	.	.	.	.	.	.	.	8c#/	przy-	.
2d#/	.	2b/)	2f#\]	.	2b 2f# 2B/	.	2ddd# 2bb 2dd#\	.	]	(<4e/)	-bli-	.
.	.	.	.	.	.	.	.	.	.	4d#/)	-ża	.
!	!	!	!	!	!LO:LB:g=original	!	!LO:LB:g=original	!	!	!LO:LB:g=original	!	!
*	*	*v	*v	*	*	*	*	*	*	*	*	*
=22	=22	=22	=22	=22	=22	=22	=22	=22	=22	=22	=22
!LO:TX:b:Bi:t=poco a poco cresc e stringendo	!	!	!	!	!	!	!	!	!LO:TX:a:Bi:t=poco a poco cresc e stringendo	!	!
!	!	!	!	!	!	!LO:TX:b:Bi:t=poco a poco cresc e stringendo	!	!	!	!	!
2f#/	(<4e\	(>4cc# 4a#\	.	(<4a# 4f# 4e/	.	(>4ccc# 4ff# 4cc#\	.	.	4c#/	Wznieć	.
.	4d#\	4b\	.	4f# 4d#/	.	4bb 4ff# 4b\	.	.	8.B/	o-	.
.	.	.	.	.	.	.	.	.	16B/	-czy	.
2f#/	4c#\	4ee 4a#\	.	4a# 4f# 4c#/	.	4eee 4aa# 4ff# 4ee\	.	.	8.f#^>/L	w gó-	.
.	.	.	.	.	.	.	.	.	16e/Jk	.	.
.	4B\)	4dd# 4b\)	.	4b 4f# 4B/)	.	4ddd# 4bb 4ff# 4dd#\)	.	.	8.d#,>/	-rę	.
.	.	.	.	.	.	.	.	.	16d#/	a	.
*	*	*	*	*clefF4	*	*	*	*	*	*	*
=23	=23	=23	=23	=23	=23	=23	=23	=23	=23	=23	=23
*	*	*^	*	*	*	*	*	*	*	*	*
4d# 4AX\	2ryy	(>4ff#/	2b\	.	(<4f# 4d# 4B 4An\	.	4fff# 4bb 4ff#\	.	.	4f#/	du-	.
4e 4G#\	.	4ee/	.	.	4g# 4e 4B 4G#\	.	4eee 4bb 4ee\	.	.	8.e/	-szę	.
.	.	.	.	.	.	.	.	.	.	16g#/	do	.
*	*	*	*	*	*	*	*8va	*	*	*	*	*
4f# 4F#\	2B/	4aaX 4dd#/	4aX\	.	4f# 4B 4F#\	.	4aaan 4ddd# 4bb 4aan\	.	.	8.b^^>\L	Bo-	.
.	.	.	.	.	.	.	.	.	.	16an\Jk	.	.
4e 4E\	.	4gg# 4ee/)	4g#\	.	4e 4B 4E\)	.	4ggg# 4eee 4bb 4gg#\	.	.	4g#/	-ga,	.
!!LO:LB:g=original
*v	*v	*	*	*	*	*	*	*	*	*	*	*
*	*v	*v	*	*	*	*	*	*	*	*	*
=24	=24	=24	=24	=24	=24	=24	=24	=24	=24	=24
!LO:TX:b:Bi:t=a tempo	!	!	!	!	!LO:TX:b:Bi:t=a tempo	!	!	!LO:TX:a:Bi:t=a tempo	!	!
!	!	!	!	!	!	!	!	!	!	!LO:HP:b
2d# 2B 2E#X\	2gg# 2dd# 2b\	.	2d# 2B 2E#X\	.	2ggg# 2ddd# 2bb 2gg#\	.	<	4g#/	Two-	<
.	.	.	.	.	.	.	.	8.a#X/	-je	.
.	.	.	.	.	.	.	.	16b/	zba-	[
*	*	*	*ped	*	*	*	*	*	*	*
!	!	!LO:DY:b:rj	!	!	!	!	!LO:DY:b:rj	!	!	!LO:DY:b:rj
2d# 2B 2F#;>\	2ff# 2b 2f#;>\	f	2f# 2d# 2B 2F#\	.	2fff# 2ddd# 2bb 2ff#;>\	.	[ f	(>4dd#;>\	-wie-	f
.	.	.	.	.	.	.	.	8b\)	-nie	.
.	.	.	.	.	.	.	.	16r	.	.
*	*	*	*Xped	*	*	*	*	*	*	*
.	.	.	.	.	.	.	.	16b\	ot	.
=25	=25	=25	=25	=25	=25	=25	=25	=25	=25	=25
*	*^	*	*	*	*	*	*	*	*	*
2c# 2B 2F#\	2ee#X 2cc#/	2g# 2e#X\	.	2g# 2c# 2B 2F#\	.	2eee#X 2ccc# 2gg# 2ee#X/	.	.	4cc#^>\	tam,	.
.	.	.	.	.	.	.	.	.	8.r	.	.
!	!	!	!	!	!	!	!	!	!	!	!LO:DY:b:rj
.	.	.	.	.	.	.	.	.	16g#/	ot	p
!	!	!	!LO:DY:b:rj	!	!	!	!	!LO:DY:b:rj	!	!	!
2c# 2F#\	2ee 2a#/	2e\	p	2f# 2c# 2F#\	.	2eeen 2aa# 2een/	.	p	8a#^^>/	tam,	.
.	.	.	.	.	.	.	.	.	8r	.	.
!	!	!	!	!	!	!	!	!	!	!	!LO:HP:b
.	.	.	.	.	.	.	.	.	8.g#/	u	<
.	.	.	.	.	.	.	.	.	16f#/	stóp	[
*	*	*	*	*clefG2	*	*	*	*	*	*	*
!	!	!	!	!LO:PB:g=original	!	!LO:PB:g=original	!	!	!LO:PB:g=original	!	!
*	*v	*v	*	*	*	*	*	*	*	*	*
=26	=26	=26	=26	=26	=26	=26	=26	=26	=26	=26
*^	*	*	*	*	*	*	*	*	*	*
*	*	*	*	*	*	*	*	*^	*	*	*
!	!	!	!	!LO:TX:b:Bi:t=molto legato	!	!	!	!	!	!	!	!
!	!	!	!	!	!	!	!	!	!LO:DY:b:rj	!	!	!
1B	(<4B\	1dd# 1b 1d#	<	(<4b 4B/	.	2ddd# 2bb 2ff# 2dd#/	.	.	p	(>2b^>\	Krzy-	.
.	4G#\	.	.	4g# 4G#/	.	.	.	.	.	.	.	.
*	*	*	*	*	*	*X8va	*	*	*	*	*	*
!	!	!	!	!	!	!LO:TX:b:Bi:t=cre_scen_do:problem=dynamics with extention lines	!	!	!	!	!	!
!	!	!	!	!	!	!	!	!LO:HP:b:Bi:t=cre_scen_do:ext=ud	!	!	!	!
.	4F#\	.	.	4f# 4F#/	.	8r	.	<	.	4B/)	-ża!	.
!	!	!	!	!	!	!LO:TUP:a:problem=klamra łukowa	!	!	!	!	!	!
.	.	.	.	.	.	(<24bLL 24B'</	.	.	.	.	.	.
.	.	.	.	.	.	24b 24B'</	.	.	.	.	.	.
.	.	.	.	.	.	24bJJ 24B'</	.	.	.	.	.	.
*	*	*	*	*clefF4	*	*	*	*	*	*	*	*
!	!	!	!	!	!	!LO:TX:a:Bi:t=marcato	!	!	!	!	!	!
.	4D#\	.	.	4d# 4D#\)	.	8bL 8B'</	.	.	.	4r	.	.
.	.	.	.	.	.	8bJ 8B'</)	.	.	.	.	.	.
=27	=27	=27	=27	=27	=27	=27	=27	=27	=27	=27	=27	=27
[>1B	4BB\	[>1dd# [>1b [>1f# [<1d#	[	(<4B 4BB\	.	2dd# 2b 2f# 2d#^>/	.	.	.	1r	.	.
.	4G#\	.	.	4G# 4GG#\	.	.	.	.	.	.	.	.
.	4F#\)	.	.	4F# 4FF#\	.	8r	.	.	.	.	.	.
!	!	!	!	!	!	!LO:TUP:a:problem=klamra łukowa	!	!	!	!	!	!
.	.	.	.	.	.	(<24bLL 24B'</	.	.	f	.	.	.
.	.	.	.	.	.	24b 24B'</	.	.	.	.	.	.
.	.	.	.	.	.	24bJJ 24B'</	.	.	.	.	.	.
.	4D#\	.	.	4D# 4DD#\)	.	8bL 8B'</	.	.	.	.	.	.
.	.	.	.	.	.	8bJ 8B'</)	.	.	.	.	.	.
!!LO:LB:g=original
*v	*v	*	*	*	*	*	*	*	*	*	*	*
=28	=28	=28	=28	=28	=28	=28	=28	=28	=28	=28	=28
4B] 4BB\	1dd#_> 1b_> 1f#_> 1d#_<	f	(<4BB 4BBB/	.	2dd# 2b 2f# 2d#^>/	.	[[	.	1r	.	.
4G# 4GG#\	.	.	4GG# 4GGG#/	.	.	.	.	.	.	.	.
!	!	!	!	!	!LO:TX:a:Bi:t=poco rit.:rj	!	!	!	!	!	!
4F# 4FF#\	.	.	4FF# 4FFF#/	.	8r	.	[	.	.	.	.
!	!	!	!	!	!LO:TUP:a:problem=klamra łukowa	!	!	!	!	!	!
!	!	!	!	!	!	!	!	!LO:DY:b:rj	!	!	!
.	.	.	.	.	(<24bLL 24B'</	.	.	ff	.	.	.
.	.	.	.	.	24b 24B'</	.	.	.	.	.	.
.	.	.	.	.	24bJJ 24B'</	.	.	.	.	.	.
4D# 4DD#\	.	.	4DD# 4DDD#/)	.	8bL 8B'</	.	.	.	.	.	.
.	.	.	.	.	8bJ 8B'</)	.	.	.	.	.	.
*	*	*	*	*	*	*	*v	*v	*	*	*
=29	=29	=29	=29	=29	=29	=29	=29	=29	=29	=29
2BB 2BBB/	2dd#] 2b] 2f#] 2d#/]	.	2BBB 2BBBB^>/	.	2dd# 2b 2f# 2d#^>/	.	.	1r	.	.
*	*	*	*ped	*	*	*	*	*	*	*
!	!LO:TX:a:Bi:t=Largo.	!	!	!	!LO:TX:a:Bi:t=Largo.:rj	!	!	!	!	!
!	!	!	!	!	!	!	!LO:DY:b:rj	!	!	!
(<4G# 4E 4BB 4GG#\	(>4ee 4b 4g# 4e\	.	(<4G# 4E 4BB 4GG#/	.	(>4ee 4b 4g# 4e/	.	p	.	.	.
*	*	*	*Xped	*	*	*	*	*	*	*
4E 4BB 4GG# 4EE\	4gg# 4ee 4b 4g#\	.	4E 4BB 4GG# 4EE/	.	4gg# 4ee 4b 4g#\	.	>]	.	.	.
!	!	!	!LO:LB:g=original	!	!LO:LB:g=original	!	!	!LO:LB:g=original	!	!
=30	=30	=30	=30	=30	=30	=30	=30	=30	=30	=30
*	*	*	*^	*	*^	*	*	*	*	*
*	*	*	*	*Xtuplet	*	*	*Xtuplet	*	*	*	*	*
*ped	*	*	*ped	*	*	*	*	*	*	*	*	*
4BB 4BBB/	4bb 4ff# 4dd# 4b\)	>	1BB 1FF# 1BBB)	4rc	.	1bb 1ff# 1dd# 1b)	4rc	.	pp	1r	.	.
*ped	*	*	*	*	*	*	*	*	*	*	*	*
!LO:TUP:a:problem=klamra łukowa	!LO:TUP:a:problem=klamra łukowa	!	!	!	!	!	!	!	!	!	!	!
(<12BB\L)	(>12d#/L	.	.	12BB'</L	.	.	12d#'</L	.	>	.	.	.
12D#\	12f#/	.	.	12D#'</	.	.	12f#'</	.	.	.	.	.
12F#\J	12b/J	.	.	12F#'</J	.	.	12b'</J	.	.	.	.	.
!	!LO:TX:a:Bi:t=rit&colon;	!	!	!	!	!	!	!	!	!	!	!
!LO:TUP:a:problem=klamra łukowa	!LO:TUP:a:problem=klamra łukowa	!	!	!	!	!	!	!	!	!	!	!
12B\L	12dd#\L	.	.	12B'>\L	.	.	12dd#'>\L	.	.	.	.	.
12d#\	12ff#\	.	.	12d#'>\	.	.	12ff#'>\	.	.	.	.	.
12f#\J	12bb\J	.	.	12f#'>\J	.	.	12bb'>\J	.	.	.	.	.
*clefG2	*	*	*	*clefG2	*	*	*	*	*	*	*	*
*	*8va	*	*	*	*	*	*8va	*	*	*	*	*
!LO:TUP:a:problem=klamra łukowa	!LO:TUP:a:problem=klamra łukowa	!	!	!	!	!	!	!	!	!	!	!
12b\L	12ddd#\L	.	.	12b'>\L	.	.	12ddd#'>\L	.	.	.	.	.
12dd#\)	12fff#\	]	.	12dd#'>\	.	.	12fff#'>\	.	.	.	.	.
12ff#\J	12bbb\J)	.	.	12ff#'>\J	.	.	12bbb'>\J	.	]]	.	.	.
*	*	*	*v	*v	*	*	*	*	*	*	*	*
*	*	*	*	*	*v	*v	*	*	*	*	*
=31	=31	=31	=31	=31	=31	=31	=31	=31	=31	=31
!	!	!LO:DY:b:rj	!	!	!	!	!LO:DY:b:rj	!	!	!
2bb 2ff# 2b\	2dddd# 2bbb 2fff# 2ddd#\	p	2bb 2ff# 2b;>\	.	2dddd# 2bbb 2fff# 2ddd#;>\	.	ppp	1r;>	.	.
*Xped	*	*	*Xped	*	*	*	*	*	*	*
*	*X8va	*	*	*	*X8va	*	*	*	*	*
2r	2r	.	2r	.	2r	.	.	.	.	.
==	==	==	==	==	==	==	==	==	==	==
*-	*-	*-	*-	*-	*-	*-	*-	*-	*-	*-
!!title: @{OTL};
!!!RDF**kern: > = above
!!!RDF**kern: < = below
!!!RDF**dynam: > = "dim.", fontstyle= "bold-italic"
!!!RDF**dynam: < = "cresc.", fontstyle= "bold-italic"
!!!RDF**kern: | = vertical stroke
!!!RDF**kern: N = linked
!!!RDF**kern: i = editorial accidental
!!!EED: Wojciech Jakubiak-Danek
!!!EEV: 2021-06-07
!!!URL-scan: http://repozytorium.nifc.pl/skany/pl-wtm-nut--r2287
!!!ONB-nifc:
!!!ENC: Mateusz Solarz
!!!END: 2021-05-12
